X: 1
T: Duke of Leinster
R: reel
Z: 2009 John Chambers <jc:trillian.mit.edu>
S: handwritten MS of unknown origin in folder labelled "Philly tunes"
M: 2/4
L: 1/16
K: G
|: G2(3BAG dB~B2 | dBeB dBAB |  G2(3BAG dB~B2 | dBAB GEDE |  G2(3BAG dB~B2 | dBeB dBAB |
|  dB~B2 gB~B2 |1 AGAB GEDE :|2 AGAB GED2 |: dega bgg~g2 | {g}a2ab age2 |  dega bage |
| dBAB GED2 |  dega bg~g2 | {g}a2ab agef | g3f efge |1 dBAB GED2 :|2 dBAB GEDE |]
